X: 7
T: O beate Sebastiane
N: Derived from Ano2002-O_beate_Sebastiane--Trent_90.krn
C: Anonymous
%%abc-version 2.0
%%abcx-abcm2ps-target-version 5.9.1 (29 Sep 2008)
%%abc-creator hum2abc beta
%%abcx-conversion-date 2019/02/16 20:18:26
%%abc-edited-by Jesse Rodin
%%abc-edited-by Jesse Rodin 8/14/2013
%%abcx-initial-encoding-date 2013/08/14/
%%humdrum-veritas 3130902221
%%humdrum-veritas-data 2380547950
%%linebreak <none>
%%barnumbers 0
L: 1/4
M: 3/1
Q: 1/2=120
V: 1 clef=treble
V: 2 clef=treble-8
V: 3 clef=treble-8
K: C
[V:1] z4z4c4 | 
[V:2] z4z4c4 | 
[V:3] z4z4c4 | 
[V:1] c6_B2G4 | 
[V:2] c6d2e4 | 
[V:3] c8c4 | 
[V:1] A2_B2c6A2 | 
[V:2] f8c4- | 
[V:3] F12- | 
[V:1] A4_B2A3GF2 | 
[V:2] c4d8 | 
[V:3] F4D4F4 | 
[V:1] E2F2G3FE2D2 | 
[V:2] c4_B2G4_B2 | 
[V:3] C4z4G4 | 
[V:1] C4D2F3EE2 | 
[V:2] A2c4A2G4 | 
[V:3] c4A2F2_B4 | 
[V:1] F4z4A4 | 
[V:2] F8F4 | 
[V:3] c6A4F2 | 
[V:1] c4_B2d4c2 | 
[V:2] A4G4F4 | 
[V:3] F4G2_B2A4 | 
[V:1] A4z2_B2A4 | 
[V:2] z2A2G4F2c2- | 
[V:3] F4_E4F4 | 
[V:1] G4F2F2E4 | 
[V:2] c2G2A2_B2c4- | 
[V:3] C2E2D4C2E2 | 
[V:1] z2C2D2E2F4 | 
[V:2] c4z2c2d2f2 | 
[V:3] F2A3GFED4 | 
[V:1] C4z2G2A2B2 | 
[V:2] e2c2_B4c2G2 | 
[V:3] E2F2G4C4- | 
[V:1] c4G4z2A2 | 
[V:2] A2c3_BAGF4 | 
[V:3] C4E4F4 | 
[V:1] G2E2D4!fermata!C4 ||  
[V:2] z2c2f4!fermata!e4 ||  
[V:3] E2C2D2F2!fermata!C4 ||  
[V:1]  [K:C] [K:clef=treble][M:3/1]c4c4B4 | 
[V:2]  [K:C] [K:clef=treble-8][M:3/1]z12 | 
[V:3]  [K:C] [K:clef=treble-8][M:3/1]C4F2A2G4 | 
[V:1] A4z2d4c2 | 
[V:2] f4f4e4 | 
[V:3] F4F4A2c2 | 
[V:1] B4A4G2c2- | 
[V:2] d2g4f2e4 | 
[V:3] G4z2D2E2C2 | 
[V:1] c2B2A2G2F3G | 
[V:2] d4c4z2d2- | 
[V:3] G4z2C2D2F2- | 
[V:1] ABc3BA4G2 | 
[V:2] d2c2A4_B4 | 
[V:3] F2C2z2F2G4 | 
[V:1] A4z4c4 | 
[V:2] A8z2F2 | 
[V:3] D2F4c4A2 | 
[V:1] _B4c4A4 | 
[V:2] G4A2F4c2- | 
[V:3] G2_B2F8- | 
[V:1] z2c2_B4c4 | 
[V:2] c2A2G4A2F2- | 
[V:3] F4z2A2F4 | 
[V:1] A4F4G2_B2 | 
[V:2] F2A4_B4G2 | 
[V:3] c6d4e2 | 
[V:1] A4G2F4E2 | 
[V:2] F2c3_BA2G4 | 
[V:3] f2e2c2c4B2 | 
[V:1] F4C4C4 | 
[V:2] F8z2c2 | 
[V:3] c2A2F2A3GFE | 
[V:1] F4G4z2G2 | 
[V:2] d2f2e2c2_B4 | 
[V:3] D4E2F2G4 | 
[V:1] A2_B2c4G4 | 
[V:2] c2G2A2c3_BAG | 
[V:3] C8E4 | 
[V:1] z2A2G2E2D3E | 
[V:2] F4z2c4_B2 | 
[V:3] F4E2C2z2G2 | 
[V:1] FGA3GF3EED | 
[V:2] A2F2E2F2G4 | 
[V:3] A2c8B2 | 
[V:1] F8 |]  
[V:2] F8 |]  
[V:3] c8 |]  



